X:188
T:Domino
T:Miss Fanny Sulyard's Delight
L:1/4
M:2/2
S:Colin Hume's website,  colinhume.com  - chords can also be printed below the stave.
Q:1/2=110
K:A
P:A
|: e/ | "A"ea/e/ ce/c/ | "A"Ac/A/ E3/E/ | "D"F/G/A/B/ c/d/e/f/ | "A"g/a/e/c/ "E7"B3/e/ |\
"A"ea/e/ ce/c/ | "A"Ac/A/ E3/E/ | "D"F/G/A/B/ c/d/e/f/ | "A"g/a/e/c/ A3/ :|
P:B
|: z/ | "E7"Bd/B/ "A"ce/c/ | "D"f/d/"B7/D#"B/c/ "E"A/G/F/E/ | "D"F/G/A/B/ c/d/e/f/ | "A"g/a/e/c/ "E"B/G/F/E/ |\
"E7"Bd/B/ "A"ce/c/ | "D"f/d/"B7/D#"B/c/ "E"A/G/F/E/ | "D"F/G/A/B/ c/d/e/f/ | "A"g/a/e/c/ Az/ :|

